; generated by PrusaSlicer 2.2.0+ on 2021-01-18 at 07:16:31 UTC


;
;

;
;
; 

; external perimeters extrusion width = 0.45mm
; perimeters extrusion width = 0.45mm
; infill extrusion width = 0.45mm
; solid infill extrusion width = 0.45mm
; top infill extrusion width = 0.40mm
; support material extrusion width = 0.35mm
; first layer extrusion width = 0.42mm

M73 P0 R87
M201 X1250 Y1250 Z400 E5000 ; sets maximum accelerations, mm/sec^2
M203 X180 Y180 Z12 E80 ; sets maximum feedrates, mm/sec
M204 P1250 R1250 T1250 ; sets acceleration (P, T) and retract acceleration (R), mm/sec^2
M205 X8.00 Y8.00 Z2.00 E10.00 ; sets the jerk limits, mm/sec
M205 S0 T0 ; sets the minimum extruding and travel feed rate, mm/sec
M107
G90 ; use absolute coordinates
M83 ; extruder relative mode
M104 S170 ; set extruder temp for bed leveling
M140 S65 ; set bed temp
M109 R170 ; wait for bed leveling temp
M190 S65 ; wait for bed temp
G28 ; home all without mesh bed level
G29 ; mesh bed leveling 
M104 S215 ; set extruder temp
G92 E0.0
G1 Y-2.0 X179 F2400
G1 Z3 F720
M109 S215 ; wait for extruder temp

; intro line
G1 X170 F1000
G1 Z0.2 F720
G1 X110.0 E8.0 F900
M73 P0 R87
G1 X40.0 E10.0 F700
G92 E0.0

M221 S95 ; set flow
G21 ; set units to millimeters
G90 ; use absolute coordinates
M83 ; use relative distances for extrusion
M900 K0.2 ; Filament gcode LA 1.5
; ; Filament gcode LA 1.0
;BEFORE_LAYER_CHANGE
G92 E0.0
;0.2


G1 Z0.200 F9000.000
;AFTER_LAYER_CHANGE
;0.2
G1 E-3.20000 F4200.00000
G1 Z0.400 F9000.000
G1 X28.261 Y146.733
G1 Z0.200
G1 E3.20000 F2400.00000
M204 S800
G1 F1200.000
G1 X27.866 Y145.849 E0.03036
G1 X16.488 Y90.101 E1.78397
G1 X16.428 Y89.309 E0.02491
G1 X16.429 Y65.242 E0.75462
G1 X16.616 Y63.890 E0.04279
G1 X17.161 Y62.588 E0.04425
G1 X17.999 Y61.500 E0.04306
G1 X19.073 Y60.668 E0.04259
G1 X20.197 Y60.168 E0.03857
G1 X21.549 Y59.928 E0.04306
G1 X80.809 Y59.922 E1.85805
G1 X81.697 Y59.996 E0.02796
G1 X82.684 Y60.261 E0.03204
G1 X83.493 Y60.641 E0.02800
G1 X84.229 Y61.153 E0.02812
G1 X84.951 Y61.876 E0.03203
G1 X85.461 Y62.609 E0.02799
G1 X85.840 Y63.412 E0.02784
G1 X86.106 Y64.401 E0.03212
G1 X86.182 Y65.294 E0.02810
G1 X86.172 Y89.623 E0.76281
G1 X86.069 Y90.394 E0.02440
G1 X74.750 Y145.821 E1.77374
G1 X74.467 Y146.553 E0.02461
G1 X74.095 Y147.029 E0.01894
G1 X73.616 Y147.397 E0.01894
G1 X73.063 Y147.630 E0.01882
G1 X72.465 Y147.718 E0.01894
G1 X30.169 Y147.718 E1.32616
G1 X29.549 Y147.631 E0.01965
G1 X28.976 Y147.386 E0.01953
G1 X28.306 Y146.773 E0.02848
M204 S1250
G1 E-2.24000 F4200.00000
G1 F7200.000
G1 X27.866 Y145.849 E-0.56724
G1 X27.742 Y145.239 E-0.34476
G1 E-0.04800 F4200.00000
G1 Z0.400 F9000.000
G1 X23.259 Y57.641
G1 Z0.200
G1 E3.20000 F2400.00000
M204 S800
G1 F1200.000
G1 X24.030 Y57.769 E0.02450
G1 X24.784 Y57.968 E0.02444
G1 X25.507 Y58.235 E0.02418
G1 X26.202 Y58.582 E0.02436
G1 X26.997 Y59.115 E0.03001
G1 X27.682 Y59.536 E0.02522
G1 X28.056 Y59.738 E0.01332
M204 S1250
G1 X28.801 Y60.115 F9000.000
M204 S800
G1 F1200.000
G1 X29.108 Y60.262 E0.01067
G1 X29.847 Y60.568 E0.02509
G1 X30.599 Y60.835 E0.02501
G1 X31.391 Y61.068 E0.02587
G1 X32.147 Y61.249 E0.02439
G1 X32.934 Y61.395 E0.02509
G1 X33.727 Y61.500 E0.02509
G1 X34.525 Y61.563 E0.02509
G1 X35.387 Y61.585 E0.02703
G1 X67.223 Y61.585 E0.99821
G1 X68.085 Y61.563 E0.02703
G1 X68.883 Y61.500 E0.02509
G1 X69.676 Y61.395 E0.02509
G1 X70.463 Y61.249 E0.02509
G1 X71.241 Y61.063 E0.02509
G1 X72.008 Y60.835 E0.02509
G1 X72.763 Y60.568 E0.02509
G1 X73.502 Y60.262 E0.02509
G1 X73.819 Y60.111 E0.01102
M204 S1250
G1 X74.563 Y59.734 F9000.000
M204 S800
G1 F1200.000
G1 X74.927 Y59.536 E0.01301
G1 X75.639 Y59.100 E0.02615
G1 X76.609 Y58.468 E0.03630
G1 X77.494 Y58.081 E0.03030
G1 X78.272 Y57.841 E0.02551
G1 X79.077 Y57.678 E0.02576
G1 X79.906 Y57.595 E0.02613
G1 X81.261 Y57.599 E0.04249
G1 X82.085 Y57.692 E0.02601
G1 X82.901 Y57.876 E0.02622
G1 X83.880 Y58.225 E0.03259
G1 X84.679 Y58.629 E0.02807
G1 X85.413 Y59.114 E0.02759
G1 X86.281 Y59.867 E0.03604
G1 X87.016 Y60.725 E0.03540
G1 X87.618 Y61.683 E0.03549
G1 X88.149 Y62.941 E0.04283
G1 X88.455 Y64.307 E0.04389
G1 X88.520 Y65.306 E0.03136
G1 X88.488 Y66.511 E0.03780
G1 X88.270 Y67.802 E0.04106
G1 X87.739 Y69.294 E0.04966
G1 X87.431 Y69.846 E0.01981
G1 X86.986 Y70.494 E0.02465
G1 X86.568 Y71.176 E0.02509
G1 X86.368 Y71.544 E0.01314
M204 S1250
G1 X85.991 Y72.289 F9000.000
M204 S800
G1 F1200.000
G1 X85.841 Y72.602 E0.01086
G1 X85.535 Y73.341 E0.02509
G1 X85.268 Y74.095 E0.02509
G1 X85.041 Y74.863 E0.02509
G1 X84.854 Y75.641 E0.02509
G1 X84.711 Y76.414 E0.02466
G1 X84.606 Y77.299 E0.02792
G1 X84.711 Y78.183 E0.02792
G1 X84.854 Y78.956 E0.02466
G1 X85.041 Y79.734 E0.02509
G1 X85.268 Y80.502 E0.02510
G1 X85.535 Y81.256 E0.02509
G1 X85.986 Y82.299 E0.03563
M204 S1250
G1 X86.363 Y83.044 F9000.000
M204 S800
G1 F1200.000
G1 X86.566 Y83.418 E0.01334
G1 X87.700 Y85.223 E0.06683
G1 X88.025 Y85.994 E0.02624
G1 X88.272 Y86.803 E0.02654
G1 X88.416 Y87.505 E0.02244
G1 X88.499 Y88.226 E0.02275
G1 X88.500 Y89.846 E0.05081
G1 X88.421 Y90.521 E0.02131
G1 X88.285 Y91.189 E0.02135
G1 X87.837 Y92.466 E0.04243
G1 X87.265 Y93.514 E0.03744
G1 X86.556 Y94.438 E0.03652
G1 X85.985 Y95.013 E0.02541
G1 X85.378 Y95.511 E0.02461
G1 X85.193 Y95.627 E0.00687
M204 S1250
G1 X84.751 Y95.905 F9000.000
M204 S800
G1 F1200.000
G1 X84.434 Y96.105 E0.01176
G1 X83.424 Y96.554 E0.03466
G1 X82.191 Y96.885 E0.04002
G1 X81.126 Y97.006 E0.03361
G1 X79.892 Y97.002 E0.03869
G1 X78.586 Y96.830 E0.04131
G1 X77.728 Y96.597 E0.02787
G1 X76.979 Y96.309 E0.02515
G1 X76.349 Y95.981 E0.02227
G1 X75.614 Y95.482 E0.02787
G1 X75.013 Y95.124 E0.02192
G1 X75.015 Y128.121 E1.03461
G1 X75.534 Y128.475 E0.01968
G1 X76.488 Y129.507 E0.04407
G1 X77.061 Y130.637 E0.03972
G1 X77.317 Y131.837 E0.03848
G1 X77.317 Y132.307 E0.01475
M204 S1250
G1 E-2.24000 F4200.00000
G1 F7200.000
G1 X77.317 Y131.837 E-0.26065
G1 X77.072 Y130.688 E-0.65135
G1 E-0.04800 F4200.00000
G1 Z0.400 F9000.000
G1 X77.317 Y134.191
G1 Z0.200
G1 E3.20000 F2400.00000
M204 S800
G1 F1200.000
G1 X77.318 Y145.897 E0.36703
G1 X77.025 Y147.075 E0.03806
G1 X76.598 Y147.924 E0.02980
G1 X74.967 Y149.471 E0.07046
G1 X74.002 Y149.881 E0.03289
G1 X72.998 Y150.057 E0.03195
G1 X72.267 Y150.047 E0.02293
G1 X72.014 Y150.074 E0.00797
G1 X63.024 Y150.074 E0.28187
G1 X62.752 Y150.045 E0.00858
G1 X61.701 Y150.024 E0.03297
G1 X60.857 Y149.823 E0.02722
G1 X60.053 Y149.460 E0.02763
G1 X58.432 Y147.907 E0.07040
M204 S1250
G1 X58.239 Y147.530 F9000.000
M204 S800
G1 F1200.000
G1 X58.028 Y147.116 E0.01456
G1 X57.770 Y146.238 E0.02869
G1 X57.723 Y141.012 E0.16387
G1 X44.885 Y141.012 E0.40252
G1 X44.860 Y146.104 E0.15964
G1 X44.525 Y147.255 E0.03759
G1 X44.354 Y147.530 E0.01016
M204 S1250
G1 X44.118 Y147.907 F9000.000
M204 S800
G1 F1200.000
G1 X43.860 Y148.320 E0.01529
G1 X42.858 Y149.256 E0.04297
G1 X41.981 Y149.734 E0.03131
G1 X41.162 Y149.987 E0.02689
G1 X39.883 Y150.041 E0.04015
G1 X39.586 Y150.074 E0.00937
G1 X30.596 Y150.074 E0.28189
G1 X30.318 Y150.044 E0.00877
G1 X29.191 Y150.012 E0.03535
G1 X28.207 Y149.738 E0.03202
G1 X27.298 Y149.238 E0.03254
G1 X26.321 Y148.319 E0.04205
G1 X25.793 Y147.551 E0.02921
G1 X25.286 Y145.863 E0.05526
G1 X25.300 Y134.219 E0.36509
M204 S1250
G1 E-2.24000 F4200.00000
G1 F7200.000
G1 X25.298 Y135.865 E-0.91200
G1 E-0.04800 F4200.00000
G1 Z0.400 F9000.000
G1 X25.303 Y132.345
G1 Z0.200
G1 E3.20000 F2400.00000
M204 S800
G1 F1200.000
G1 X25.303 Y131.719 E0.01962
G1 X25.583 Y130.548 E0.03776
G1 X26.181 Y129.423 E0.03993
G1 X27.229 Y128.349 E0.04705
G1 X27.594 Y128.131 E0.01336
G1 X27.595 Y95.113 E1.03525
G1 X26.023 Y96.118 E0.05851
G1 X25.182 Y96.491 E0.02885
G1 X24.383 Y96.745 E0.02629
G1 X23.557 Y96.916 E0.02643
G1 X22.768 Y96.999 E0.02488
G1 X21.367 Y97.000 E0.04391
G1 X20.578 Y96.914 E0.02488
G1 X19.761 Y96.736 E0.02623
G1 X18.639 Y96.333 E0.03738
G1 X17.870 Y95.928 E0.02725
M204 S1250
G1 X17.427 Y95.641 F9000.000
M204 S800
G1 F1200.000
G1 X17.288 Y95.551 E0.00518
G1 X16.404 Y94.805 E0.03627
G1 X15.624 Y93.913 E0.03714
G1 X14.980 Y92.893 E0.03784
G1 X14.497 Y91.765 E0.03847
G1 X14.201 Y90.588 E0.03806
G1 X14.095 Y89.468 E0.03526
G1 X14.135 Y87.962 E0.04723
G1 X14.411 Y86.531 E0.04569
G1 X14.857 Y85.335 E0.04006
G1 X15.177 Y84.754 E0.02079
G1 X15.624 Y84.103 E0.02474
G1 X16.042 Y83.421 E0.02509
G1 X16.240 Y83.057 E0.01298
M204 S1250
G1 X16.617 Y82.314 F9000.000
M204 S800
G1 F1200.000
G1 X16.768 Y81.995 E0.01105
G1 X17.075 Y81.256 E0.02509
G1 X17.342 Y80.502 E0.02509
G1 X17.569 Y79.735 E0.02509
G1 X17.756 Y78.957 E0.02509
G1 X17.899 Y78.183 E0.02467
G1 X18.004 Y77.299 E0.02792
G1 X17.899 Y76.414 E0.02792
G1 X17.756 Y75.641 E0.02467
G1 X17.569 Y74.863 E0.02509
G1 X17.342 Y74.095 E0.02509
G1 X17.075 Y73.341 E0.02509
G1 X16.768 Y72.602 E0.02509
G1 X16.617 Y72.284 E0.01103
M204 S1250
G1 X16.240 Y71.540 F9000.000
M204 S800
G1 F1200.000
G1 X16.042 Y71.176 E0.01300
G1 X15.617 Y70.483 E0.02548
G1 X15.015 Y69.568 E0.03434
G1 X14.637 Y68.742 E0.02848
G1 X14.361 Y67.883 E0.02830
G1 X14.165 Y66.889 E0.03177
G1 X14.092 Y65.876 E0.03184
G1 X14.108 Y64.791 E0.03403
G1 X14.196 Y64.033 E0.02393
G1 X14.357 Y63.291 E0.02379
G1 X14.595 Y62.557 E0.02421
G1 X14.902 Y61.857 E0.02395
G1 X15.281 Y61.183 E0.02425
G1 X15.727 Y60.549 E0.02429
G1 X16.326 Y59.870 E0.02840
G1 X16.907 Y59.340 E0.02466
G1 X17.523 Y58.883 E0.02406
G1 X18.197 Y58.481 E0.02458
G1 X18.926 Y58.143 E0.02522
G1 X19.744 Y57.865 E0.02706
G1 X21.087 Y57.619 E0.04283
G1 X22.491 Y57.588 E0.04402
G1 X23.259 Y57.641 E0.02414
M204 S1250
G1 X22.474 Y57.965 F9000.000
M204 S800
G1 F1200.000
G1 X21.140 Y57.993 E0.04184
G1 X19.851 Y58.227 E0.04106
G1 X19.075 Y58.489 E0.02568
G1 X18.381 Y58.810 E0.02399
G1 X17.740 Y59.191 E0.02337
G1 X17.140 Y59.637 E0.02345
G1 X16.588 Y60.141 E0.02343
G1 X16.029 Y60.775 E0.02649
G1 X15.605 Y61.377 E0.02309
G1 X15.243 Y62.017 E0.02307
G1 X14.951 Y62.682 E0.02277
G1 X14.724 Y63.381 E0.02304
G1 X14.570 Y64.085 E0.02261
G1 X14.484 Y64.825 E0.02333
G1 X14.469 Y65.873 E0.03288
G1 X14.537 Y66.827 E0.03000
G1 X14.728 Y67.799 E0.03105
G1 X14.993 Y68.615 E0.02690
G1 X15.352 Y69.398 E0.02699
G1 X15.935 Y70.281 E0.03319
G1 X16.240 Y70.777 E0.01827
M204 S1250
G1 X16.617 Y71.445 F9000.000
M204 S800
G1 F1200.000
G1 X17.113 Y72.448 E0.03510
G1 X17.427 Y73.206 E0.02571
G1 X17.700 Y73.979 E0.02571
G1 X17.933 Y74.765 E0.02571
G1 X18.125 Y75.562 E0.02571
G1 X18.272 Y76.358 E0.02537
G1 X18.384 Y77.299 E0.02970
G1 X18.272 Y78.239 E0.02971
G1 X18.125 Y79.035 E0.02537
G1 X17.933 Y79.832 E0.02571
G1 X17.700 Y80.618 E0.02571
G1 X17.427 Y81.391 E0.02571
G1 X17.113 Y82.149 E0.02571
G1 X16.617 Y83.153 E0.03512
M204 S1250
G1 X16.240 Y83.820 F9000.000
M204 S800
G1 F1200.000
G1 X15.940 Y84.309 E0.01796
G1 X15.493 Y84.959 E0.02475
G1 X15.194 Y85.504 E0.01946
G1 X14.770 Y86.648 E0.03826
G1 X14.508 Y88.018 E0.04373
G1 X14.471 Y89.445 E0.04476
G1 X14.570 Y90.511 E0.03356
G1 X14.850 Y91.631 E0.03621
G1 X15.307 Y92.704 E0.03658
G1 X15.935 Y93.699 E0.03689
G1 X16.678 Y94.545 E0.03530
G1 X17.312 Y95.079 E0.02599
M204 S1250
G1 X17.765 Y95.412 F9000.000
M204 S800
G1 F1200.000
G1 X18.149 Y95.659 E0.01434
G1 X18.800 Y95.991 E0.02289
G1 X19.876 Y96.376 E0.03586
G1 X20.630 Y96.540 E0.02417
G1 X21.378 Y96.622 E0.02360
G1 X22.758 Y96.622 E0.04327
G1 X23.508 Y96.542 E0.02366
G1 X24.278 Y96.382 E0.02467
G1 X25.039 Y96.142 E0.02503
G1 X25.829 Y95.794 E0.02704
G1 X26.776 Y95.175 E0.03550
G1 X27.972 Y94.461 E0.04366
G1 X27.971 Y128.352 E1.06265
G1 X27.477 Y128.634 E0.01784
G1 X26.500 Y129.626 E0.04368
G1 X25.943 Y130.661 E0.03683
G1 X25.680 Y131.742 E0.03489
G1 X25.677 Y134.182 E0.07648
M204 S1250
G1 E-2.24000 F4200.00000
G1 F7200.000
G1 X25.679 Y132.536 E-0.91200
G1 E-0.04800 F4200.00000
G1 Z0.400 F9000.000
G1 X25.675 Y136.056
G1 Z0.200
G1 E3.20000 F2400.00000
M204 S800
G1 F1200.000
G1 X25.663 Y145.836 E0.30665
G1 X26.121 Y147.363 E0.04999
G1 X26.595 Y148.059 E0.02638
G1 X27.538 Y148.946 E0.04061
G1 X28.367 Y149.396 E0.02957
G1 X29.267 Y149.642 E0.02926
G1 X30.343 Y149.667 E0.03375
G1 X30.606 Y149.697 E0.00831
G1 X39.575 Y149.697 E0.28120
G1 X39.855 Y149.665 E0.00883
G1 X41.076 Y149.620 E0.03833
G1 X41.820 Y149.392 E0.02438
G1 X42.619 Y148.963 E0.02843
G1 X43.584 Y148.062 E0.04142
G1 X43.681 Y147.907 E0.00573
M204 S1250
G1 X43.917 Y147.530 F9000.000
M204 S800
G1 F1200.000
G1 X44.171 Y147.123 E0.01505
G1 X44.483 Y146.074 E0.03429
G1 X44.510 Y140.635 E0.17055
G1 X58.098 Y140.635 E0.42602
G1 X58.139 Y146.157 E0.17315
G1 X58.384 Y146.992 E0.02729
G1 X58.662 Y147.530 E0.01896
M204 S1250
G1 X58.953 Y147.907 F9000.000
M204 S800
G1 F1200.000
G1 X60.238 Y149.131 E0.05566
G1 X60.962 Y149.460 E0.02494
G1 X61.768 Y149.653 E0.02597
G1 X62.776 Y149.668 E0.03161
G1 X63.035 Y149.697 E0.00818
G1 X72.003 Y149.697 E0.28119
G1 X72.248 Y149.670 E0.00773
G1 X72.985 Y149.680 E0.02310
G1 X73.913 Y149.514 E0.02957
G1 X74.787 Y149.138 E0.02983
G1 X76.277 Y147.724 E0.06438
G1 X76.665 Y146.961 E0.02684
G1 X76.941 Y145.873 E0.03520
G1 X76.943 Y136.023 E0.30885
M204 S1250
G1 E-2.24000 F4200.00000
G1 F7200.000
G1 X76.943 Y137.669 E-0.91200
G1 E-0.04800 F4200.00000
G1 Z0.400 F9000.000
G1 X76.943 Y134.136
G1 Z0.200
G1 E3.20000 F2400.00000
M204 S800
G1 F1200.000
G1 X76.944 Y131.896 E0.07023
G1 X76.698 Y130.740 E0.03706
G1 X76.165 Y129.703 E0.03655
G1 X75.275 Y128.749 E0.04093
G1 X74.638 Y128.324 E0.02398
G1 X74.636 Y94.460 E1.06179
G1 X75.816 Y95.164 E0.04309
G1 X76.552 Y95.663 E0.02786
G1 X77.143 Y95.969 E0.02090
G1 X77.836 Y96.236 E0.02327
G1 X78.672 Y96.463 E0.02717
G1 X79.905 Y96.625 E0.03899
G1 X81.116 Y96.628 E0.03798
G1 X82.108 Y96.517 E0.03128
G1 X83.285 Y96.203 E0.03820
G1 X84.245 Y95.778 E0.03292
G1 X84.855 Y95.395 E0.02259
M204 S1250
G1 X85.304 Y95.085 F9000.000
M204 S800
G1 F1200.000
G1 X85.725 Y94.740 E0.01707
G1 X86.265 Y94.198 E0.02397
G1 X86.941 Y93.319 E0.03478
G1 X87.487 Y92.326 E0.03554
G1 X87.918 Y91.100 E0.04073
G1 X88.047 Y90.470 E0.02019
G1 X88.124 Y89.813 E0.02071
G1 X88.123 Y88.258 E0.04877
G1 X88.045 Y87.572 E0.02164
G1 X87.905 Y86.888 E0.02190
G1 X87.673 Y86.131 E0.02480
G1 X87.358 Y85.383 E0.02545
G1 X86.363 Y83.803 E0.05857
M204 S1250
G1 X85.986 Y83.140 F9000.000
M204 S800
G1 F1200.000
G1 X85.497 Y82.149 E0.03464
G1 X85.183 Y81.391 E0.02570
G1 X84.909 Y80.618 E0.02571
G1 X84.676 Y79.832 E0.02571
G1 X84.485 Y79.035 E0.02571
G1 X84.338 Y78.240 E0.02536
G1 X84.226 Y77.299 E0.02971
G1 X84.338 Y76.358 E0.02971
G1 X84.485 Y75.562 E0.02536
G1 X84.676 Y74.765 E0.02571
G1 X84.909 Y73.979 E0.02571
G1 X85.183 Y73.206 E0.02571
G1 X85.497 Y72.448 E0.02571
G1 X85.991 Y71.449 E0.03497
M204 S1250
G1 X86.368 Y70.780 F9000.000
M204 S800
G1 F1200.000
G1 X86.670 Y70.288 E0.01809
G1 X87.115 Y69.640 E0.02467
G1 X87.402 Y69.124 E0.01848
G1 X87.901 Y67.722 E0.04667
G1 X88.111 Y66.487 E0.03929
G1 X88.142 Y65.304 E0.03710
G1 X88.080 Y64.347 E0.03010
G1 X87.795 Y63.072 E0.04096
G1 X87.291 Y61.870 E0.04086
G1 X86.720 Y60.959 E0.03369
G1 X86.004 Y60.123 E0.03451
G1 X85.176 Y59.407 E0.03432
G1 X84.481 Y58.950 E0.02610
G1 X83.742 Y58.577 E0.02595
G1 X82.785 Y58.236 E0.03185
G1 X82.013 Y58.063 E0.02481
G1 X81.229 Y57.975 E0.02473
G1 X79.915 Y57.972 E0.04121
G1 X79.124 Y58.052 E0.02492
G1 X78.356 Y58.208 E0.02457
G1 X77.616 Y58.438 E0.02432
G1 X76.801 Y58.792 E0.02785
G1 X75.326 Y59.734 E0.05485
M204 S1250
G1 X74.659 Y60.111 F9000.000
M204 S800
G1 F1200.000
G1 X73.655 Y60.607 E0.03509
G1 X72.898 Y60.920 E0.02571
G1 X72.125 Y61.194 E0.02571
G1 X71.339 Y61.427 E0.02571
G1 X70.541 Y61.618 E0.02571
G1 X69.735 Y61.768 E0.02571
G1 X68.922 Y61.875 E0.02571
G1 X68.105 Y61.939 E0.02571
G1 X67.228 Y61.962 E0.02749
G1 X35.382 Y61.962 E0.99852
G1 X34.505 Y61.939 E0.02749
G1 X33.688 Y61.875 E0.02571
G1 X32.875 Y61.768 E0.02571
G1 X32.069 Y61.618 E0.02571
G1 X31.293 Y61.432 E0.02500
G1 X30.483 Y61.193 E0.02649
G1 X29.712 Y60.920 E0.02563
G1 X28.955 Y60.607 E0.02571
G1 X27.960 Y60.116 E0.03477
M204 S1250
G1 X27.292 Y59.739 F9000.000
M204 S800
G1 F1200.000
G1 X26.793 Y59.433 E0.01836
G1 X26.022 Y58.913 E0.02913
G1 X25.367 Y58.585 E0.02298
G1 X24.662 Y58.325 E0.02357
G1 X23.943 Y58.135 E0.02331
G1 X23.207 Y58.014 E0.02338
G1 X22.474 Y57.965 E0.02304
