; generated by PrusaSlicer 2.2.0+ on 2021-01-03 at 00:58:15 UTC


;
;

;
;
; 

; external perimeters extrusion width = 0.45mm
; perimeters extrusion width = 0.45mm
; infill extrusion width = 0.45mm
; solid infill extrusion width = 0.45mm
; top infill extrusion width = 0.40mm
; first layer extrusion width = 0.42mm

M73 P0 R52
M201 X1250 Y1250 Z400 E5000 ; sets maximum accelerations, mm/sec^2
M203 X180 Y180 Z12 E80 ; sets maximum feedrates, mm/sec
M204 P1250 R1250 T1250 ; sets acceleration (P, T) and retract acceleration (R), mm/sec^2
M205 X8.00 Y8.00 Z2.00 E10.00 ; sets the jerk limits, mm/sec
M205 S0 T0 ; sets the minimum extruding and travel feed rate, mm/sec
M107
G90 ; use absolute coordinates
M83 ; extruder relative mode
M104 S170 ; set extruder temp for bed leveling
M140 S60 ; set bed temp
M109 R170 ; wait for bed leveling temp
M190 S60 ; wait for bed temp
G28 ; home all without mesh bed level
G29 ; mesh bed leveling 
M104 S215 ; set extruder temp
G92 E0.0
G1 Y-2.0 X179 F2400
G1 Z3 F720
M109 S215 ; wait for extruder temp

; intro line
G1 X170 F1000
G1 Z0.2 F720
G1 X110.0 E8.0 F900
M73 P0 R52
G1 X40.0 E10.0 F700
G92 E0.0

M221 S95 ; set flow
G21 ; set units to millimeters
G90 ; use absolute coordinates
M83 ; use relative distances for extrusion
M900 K0.2 ; Filament gcode LA 1.5
; ; Filament gcode LA 1.0
;BEFORE_LAYER_CHANGE
G92 E0.0
;0.2


G1 Z0.200 F9000.000
;AFTER_LAYER_CHANGE
;0.2
G1 E-3.20000 F4200.00000
G1 Z0.400 F9000.000
G1 X55.385 Y57.343
G1 Z0.200
G1 E3.20000 F2400.00000
M204 S800
G1 F1200.000
G1 X56.014 Y56.036 E0.04550
G1 X56.865 Y55.038 E0.04109
G1 X57.827 Y54.334 E0.03738
G1 X59.059 Y53.820 E0.04188
G1 X60.252 Y53.629 E0.03786
G1 X119.504 Y53.623 E1.85781
G1 X120.392 Y53.698 E0.02796
G1 X121.380 Y53.962 E0.03204
G1 X122.188 Y54.343 E0.02800
G1 X122.924 Y54.854 E0.02812
G1 X123.646 Y55.577 E0.03203
G1 X124.158 Y56.313 E0.02811
G1 X124.536 Y57.117 E0.02785
G1 X124.803 Y58.110 E0.03224
G1 X124.877 Y58.995 E0.02786
G1 X124.842 Y83.610 E0.77177
G1 X124.601 Y84.700 E0.03501
G1 X111.147 Y123.399 E1.28460
G1 X110.648 Y124.418 E0.03560
G1 X109.962 Y125.223 E0.03316
G1 X109.166 Y125.803 E0.03087
G1 X108.172 Y126.217 E0.03376
G1 X107.179 Y126.373 E0.03152
G1 X72.954 Y126.377 E1.07309
G1 X71.684 Y126.174 E0.04034
G1 X70.576 Y125.644 E0.03850
G1 X70.059 Y125.242 E0.02056
G1 X69.587 Y124.740 E0.02160
G1 X69.206 Y124.182 E0.02117
G1 X68.907 Y123.551 E0.02191
G1 X55.240 Y84.117 E1.30858
G1 X55.123 Y83.014 E0.03476
G1 X55.128 Y58.777 E0.75994
G1 X55.374 Y57.402 E0.04379
M204 S1250
G1 E-2.24000 F4200.00000
G1 F7200.000
G1 X56.014 Y56.036 E-0.83631
G1 X56.103 Y55.932 E-0.07569
G1 E-0.04800 F4200.00000
G1 Z0.400 F9000.000
G1 X103.289 Y88.889
G1 Z0.200
G1 E3.20000 F2400.00000
M204 S800
G1 F1200.000
G1 X103.552 Y88.563 E0.01313
G1 X103.808 Y88.345 E0.01052
G1 X104.170 Y88.136 E0.01313
G1 X104.575 Y88.004 E0.01335
G1 X104.983 Y87.961 E0.01287
G1 X105.326 Y87.987 E0.01076
G1 X105.731 Y88.095 E0.01317
G1 X106.111 Y88.289 E0.01337
G1 X106.443 Y88.557 E0.01337
G1 X106.711 Y88.889 E0.01337
G1 X106.901 Y89.262 E0.01313
G1 X106.997 Y89.584 E0.01052
G1 X107.040 Y90.000 E0.01313
G1 X106.997 Y90.416 E0.01313
G1 X106.901 Y90.738 E0.01052
G1 X106.711 Y91.111 E0.01313
G1 X106.443 Y91.443 E0.01337
G1 X106.111 Y91.711 E0.01337
G1 X105.738 Y91.901 E0.01313
G1 X105.416 Y91.997 E0.01052
G1 X105.000 Y92.040 E0.01313
G1 X104.584 Y91.997 E0.01313
G1 X104.262 Y91.901 E0.01052
G1 X103.889 Y91.711 E0.01313
G1 X103.557 Y91.443 E0.01337
G1 X103.289 Y91.111 E0.01337
G1 X103.099 Y90.738 E0.01313
G1 X103.003 Y90.416 E0.01052
G1 X102.960 Y90.000 E0.01313
G1 X103.003 Y89.584 E0.01313
G1 X103.099 Y89.262 E0.01052
G1 X103.262 Y88.942 E0.01125
M204 S1250
G1 X103.598 Y89.113 F9000.000
M204 S800
G1 F1200.000
G1 X103.824 Y88.827 E0.01143
G1 X104.026 Y88.655 E0.00835
G1 X104.324 Y88.482 E0.01080
G1 X104.654 Y88.375 E0.01088
G1 X104.989 Y88.339 E0.01056
G1 X105.262 Y88.360 E0.00858
G1 X105.595 Y88.449 E0.01082
G1 X105.905 Y88.607 E0.01089
G1 X106.175 Y88.825 E0.01089
G1 X106.393 Y89.095 E0.01089
G1 X106.550 Y89.402 E0.01080
G1 X106.625 Y89.657 E0.00835
G1 X106.661 Y90.000 E0.01080
G1 X106.625 Y90.343 E0.01080
G1 X106.550 Y90.598 E0.00835
G1 X106.393 Y90.905 E0.01080
G1 X106.175 Y91.175 E0.01089
G1 X105.905 Y91.393 E0.01089
G1 X105.598 Y91.550 E0.01080
G1 X105.343 Y91.625 E0.00835
G1 X105.000 Y91.661 E0.01080
G1 X104.657 Y91.625 E0.01080
G1 X104.402 Y91.550 E0.00835
G1 X104.095 Y91.393 E0.01080
G1 X103.825 Y91.175 E0.01089
G1 X103.607 Y90.905 E0.01089
G1 X103.450 Y90.598 E0.01080
G1 X103.375 Y90.343 E0.00835
G1 X103.339 Y90.000 E0.01080
G1 X103.375 Y89.657 E0.01080
G1 X103.450 Y89.402 E0.00835
G1 X103.570 Y89.167 E0.00828
M204 S1250
G1 X103.432 Y88.789 F9000.000
G1 E-2.24000 F4200.00000
G1 F7200.000
G1 X103.824 Y88.827 E-0.23472
G1 X104.026 Y88.655 E-0.14756
G1 X104.324 Y88.482 E-0.19085
G1 X104.654 Y88.375 E-0.19233
G1 X104.917 Y88.347 E-0.14654
G1 E-0.04800 F4200.00000
G1 Z0.400 F9000.000
G1 X104.983 Y117.961
G1 Z0.200
G1 E3.20000 F2400.00000
M204 S800
G1 F1200.000
G1 X105.326 Y117.987 E0.01076
G1 X105.731 Y118.095 E0.01317
G1 X106.111 Y118.289 E0.01337
G1 X106.443 Y118.557 E0.01337
G1 X106.711 Y118.889 E0.01337
G1 X106.901 Y119.262 E0.01313
G1 X106.997 Y119.584 E0.01052
G1 X107.040 Y120.000 E0.01313
G1 X106.997 Y120.416 E0.01313
G1 X106.901 Y120.738 E0.01052
G1 X106.711 Y121.111 E0.01313
G1 X106.443 Y121.443 E0.01338
G1 X106.111 Y121.711 E0.01337
G1 X105.738 Y121.901 E0.01313
G1 X105.416 Y121.997 E0.01052
G1 X105.000 Y122.040 E0.01313
G1 X104.584 Y121.997 E0.01313
G1 X104.262 Y121.901 E0.01052
G1 X103.889 Y121.711 E0.01313
G1 X103.557 Y121.443 E0.01337
G1 X103.289 Y121.111 E0.01338
G1 X103.099 Y120.738 E0.01313
G1 X103.003 Y120.416 E0.01052
G1 X102.960 Y120.000 E0.01313
G1 X103.003 Y119.584 E0.01313
G1 X103.099 Y119.262 E0.01052
G1 X103.289 Y118.889 E0.01313
G1 X103.552 Y118.563 E0.01313
G1 X103.808 Y118.345 E0.01052
G1 X104.170 Y118.136 E0.01313
G1 X104.575 Y118.004 E0.01335
G1 X104.924 Y117.967 E0.01099
M204 S1250
G1 X104.654 Y118.375 F9000.000
M204 S800
G1 F1200.000
G1 X104.989 Y118.339 E0.01056
G1 X105.262 Y118.360 E0.00858
G1 X105.595 Y118.449 E0.01082
G1 X105.905 Y118.607 E0.01089
G1 X106.175 Y118.825 E0.01089
G1 X106.393 Y119.095 E0.01089
G1 X106.550 Y119.402 E0.01080
G1 X106.625 Y119.657 E0.00835
G1 X106.661 Y120.000 E0.01080
G1 X106.625 Y120.343 E0.01080
G1 X106.550 Y120.598 E0.00835
G1 X106.393 Y120.905 E0.01080
G1 X106.175 Y121.175 E0.01089
G1 X105.905 Y121.393 E0.01089
G1 X105.598 Y121.550 E0.01080
G1 X105.343 Y121.625 E0.00835
G1 X105.000 Y121.661 E0.01080
G1 X104.657 Y121.625 E0.01080
G1 X104.402 Y121.550 E0.00835
G1 X104.095 Y121.393 E0.01080
G1 X103.825 Y121.175 E0.01089
G1 X103.607 Y120.905 E0.01089
G1 X103.450 Y120.598 E0.01080
G1 X103.375 Y120.343 E0.00835
G1 X103.339 Y120.000 E0.01080
G1 X103.375 Y119.657 E0.01080
G1 X103.450 Y119.402 E0.00835
G1 X103.607 Y119.095 E0.01080
G1 X103.824 Y118.827 E0.01080
G1 X104.026 Y118.655 E0.00835
G1 X104.324 Y118.482 E0.01080
G1 X104.597 Y118.394 E0.00900
M204 S1250
G1 X104.758 Y118.055 F9000.000
G1 E-2.24000 F4200.00000
G1 F7200.000
G1 X104.989 Y118.339 E-0.21930
G1 X105.262 Y118.360 E-0.15167
G1 X105.595 Y118.449 E-0.19116
G1 X105.905 Y118.607 E-0.19240
G1 X106.126 Y118.786 E-0.15748
G1 E-0.04800 F4200.00000
G1 Z0.400 F9000.000
G1 X77.040 Y120.000
G1 Z0.200
G1 E3.20000 F2400.00000
M204 S800
G1 F1200.000
G1 X76.997 Y120.416 E0.01313
G1 X76.901 Y120.738 E0.01052
G1 X76.711 Y121.111 E0.01313
G1 X76.443 Y121.443 E0.01338
G1 X76.111 Y121.711 E0.01337
G1 X75.738 Y121.901 E0.01313
G1 X75.416 Y121.997 E0.01052
G1 X75.000 Y122.040 E0.01313
G1 X74.584 Y121.997 E0.01313
G1 X74.262 Y121.901 E0.01052
G1 X73.889 Y121.711 E0.01313
G1 X73.557 Y121.443 E0.01337
G1 X73.289 Y121.111 E0.01338
G1 X73.099 Y120.738 E0.01313
G1 X73.003 Y120.416 E0.01052
G1 X72.960 Y120.000 E0.01313
G1 X73.003 Y119.584 E0.01313
G1 X73.099 Y119.262 E0.01052
G1 X73.289 Y118.889 E0.01313
G1 X73.552 Y118.563 E0.01313
G1 X73.807 Y118.345 E0.01052
G1 X74.170 Y118.136 E0.01313
G1 X74.575 Y118.004 E0.01335
G1 X74.983 Y117.961 E0.01287
G1 X75.326 Y117.987 E0.01076
G1 X75.731 Y118.095 E0.01317
G1 X76.111 Y118.289 E0.01337
G1 X76.443 Y118.557 E0.01337
G1 X76.711 Y118.889 E0.01337
G1 X76.901 Y119.262 E0.01313
G1 X76.997 Y119.584 E0.01052
G1 X77.034 Y119.940 E0.01125
M204 S1250
G1 X76.659 Y119.980 F9000.000
M204 S800
G1 F1200.000
G1 X76.625 Y120.343 E0.01143
G1 X76.550 Y120.598 E0.00835
G1 X76.393 Y120.905 E0.01080
G1 X76.175 Y121.175 E0.01089
G1 X75.905 Y121.393 E0.01089
G1 X75.598 Y121.550 E0.01080
G1 X75.343 Y121.625 E0.00835
G1 X75.000 Y121.661 E0.01080
G1 X74.657 Y121.625 E0.01080
G1 X74.402 Y121.550 E0.00835
G1 X74.095 Y121.393 E0.01080
G1 X73.825 Y121.175 E0.01089
G1 X73.607 Y120.905 E0.01089
G1 X73.450 Y120.598 E0.01080
G1 X73.375 Y120.343 E0.00835
G1 X73.339 Y120.000 E0.01080
G1 X73.375 Y119.657 E0.01080
G1 X73.450 Y119.402 E0.00835
G1 X73.607 Y119.095 E0.01080
G1 X73.824 Y118.827 E0.01080
G1 X74.026 Y118.655 E0.00835
G1 X74.324 Y118.482 E0.01080
G1 X74.654 Y118.375 E0.01088
G1 X74.989 Y118.339 E0.01056
G1 X75.262 Y118.360 E0.00858
G1 X75.595 Y118.449 E0.01082
G1 X75.905 Y118.607 E0.01089
G1 X76.175 Y118.825 E0.01089
G1 X76.393 Y119.095 E0.01089
G1 X76.550 Y119.402 E0.01080
G1 X76.625 Y119.657 E0.00835
G1 X76.653 Y119.920 E0.00828
M204 S1250
G1 X76.975 Y120.162 F9000.000
G1 E-2.24000 F4200.00000
G1 F7200.000
G1 X76.625 Y120.343 E-0.23468
G1 X76.550 Y120.598 E-0.14754
G1 X76.393 Y120.905 E-0.19085
G1 X76.175 Y121.175 E-0.19247
G1 X75.969 Y121.341 E-0.14645
G1 E-0.04800 F4200.00000
G1 Z0.400 F9000.000
G1 X75.000 Y92.040
G1 Z0.200
G1 E3.20000 F2400.00000
M204 S800
G1 F1200.000
G1 X74.584 Y91.997 E0.01313
G1 X74.262 Y91.901 E0.01052
G1 X73.889 Y91.711 E0.01313
G1 X73.557 Y91.443 E0.01337
G1 X73.289 Y91.111 E0.01337
G1 X73.099 Y90.738 E0.01313
G1 X73.003 Y90.416 E0.01052
G1 X72.960 Y90.000 E0.01313
G1 X73.003 Y89.584 E0.01313
G1 X73.099 Y89.262 E0.01052
G1 X73.289 Y88.889 E0.01313
G1 X73.552 Y88.563 E0.01313
G1 X73.807 Y88.345 E0.01052
G1 X74.170 Y88.136 E0.01313
G1 X74.575 Y88.004 E0.01335
G1 X74.983 Y87.961 E0.01287
G1 X75.326 Y87.987 E0.01076
G1 X75.731 Y88.095 E0.01317
G1 X76.111 Y88.289 E0.01337
G1 X76.443 Y88.557 E0.01337
G1 X76.711 Y88.889 E0.01337
G1 X76.901 Y89.262 E0.01313
G1 X76.997 Y89.584 E0.01052
G1 X77.040 Y90.000 E0.01313
G1 X76.997 Y90.416 E0.01313
G1 X76.901 Y90.738 E0.01052
G1 X76.711 Y91.111 E0.01313
G1 X76.443 Y91.443 E0.01337
G1 X76.111 Y91.711 E0.01337
G1 X75.738 Y91.901 E0.01313
G1 X75.416 Y91.997 E0.01052
G1 X75.060 Y92.034 E0.01125
M204 S1250
G1 X75.020 Y91.659 F9000.000
M204 S800
G1 F1200.000
G1 X74.657 Y91.625 E0.01143
G1 X74.402 Y91.550 E0.00835
G1 X74.095 Y91.393 E0.01080
G1 X73.825 Y91.175 E0.01089
G1 X73.607 Y90.905 E0.01089
G1 X73.450 Y90.598 E0.01080
G1 X73.375 Y90.343 E0.00835
G1 X73.339 Y90.000 E0.01080
G1 X73.375 Y89.657 E0.01080
G1 X73.450 Y89.402 E0.00835
G1 X73.607 Y89.095 E0.01080
G1 X73.824 Y88.827 E0.01080
G1 X74.026 Y88.655 E0.00835
G1 X74.324 Y88.482 E0.01080
G1 X74.654 Y88.375 E0.01088
G1 X74.989 Y88.339 E0.01056
G1 X75.262 Y88.360 E0.00858
G1 X75.595 Y88.449 E0.01082
G1 X75.905 Y88.607 E0.01089
G1 X76.175 Y88.825 E0.01089
G1 X76.393 Y89.095 E0.01089
G1 X76.550 Y89.402 E0.01080
G1 X76.625 Y89.657 E0.00835
G1 X76.661 Y90.000 E0.01080
G1 X76.625 Y90.343 E0.01080
G1 X76.550 Y90.598 E0.00835
G1 X76.393 Y90.905 E0.01080
G1 X76.175 Y91.175 E0.01089
G1 X75.905 Y91.393 E0.01089
G1 X75.598 Y91.550 E0.01080
G1 X75.343 Y91.625 E0.00835
G1 X75.080 Y91.653 E0.00828
M204 S1250
G1 X74.838 Y91.975 F9000.000
G1 E-2.24000 F4200.00000
G1 F7200.000
G1 X74.657 Y91.625 E-0.23467
G1 X74.402 Y91.550 E-0.14755
G1 X74.095 Y91.393 E-0.19086
G1 X73.825 Y91.175 E-0.19246
G1 X73.659 Y90.969 E-0.14646
G1 E-0.04800 F4200.00000
G1 Z0.400 F9000.000
G1 X72.024 Y87.282
G1 Z0.200
G1 E3.20000 F2400.00000
M204 S800
G1 F1200.000
G1 X72.289 Y87.021 E0.01163
G1 X72.508 Y86.895 E0.00793
G1 X72.756 Y86.814 E0.00817
G1 X72.946 Y86.789 E0.00600
G1 X73.494 Y86.787 E0.01720
G1 X106.970 Y86.787 E1.04962
G1 X107.251 Y86.817 E0.00887
G1 X107.492 Y86.895 E0.00793
G1 X107.711 Y87.021 E0.00793
G1 X107.899 Y87.191 E0.00793
G1 X108.052 Y87.401 E0.00817
G1 X108.127 Y87.559 E0.00547
G1 X108.197 Y87.818 E0.00841
G1 X108.213 Y88.025 E0.00652
G1 X108.213 Y121.967 E1.06421
G1 X108.183 Y122.252 E0.00898
G1 X108.105 Y122.492 E0.00792
G1 X107.979 Y122.711 E0.00793
G1 X107.804 Y122.905 E0.00817
G1 X107.666 Y123.011 E0.00547
G1 X107.433 Y123.129 E0.00818
G1 X107.182 Y123.197 E0.00816
G1 X106.975 Y123.213 E0.00652
G1 X73.033 Y123.213 E1.06421
G1 X72.748 Y123.183 E0.00898
G1 X72.508 Y123.105 E0.00792
G1 X72.289 Y122.979 E0.00793
G1 X72.095 Y122.804 E0.00817
G1 X71.989 Y122.666 E0.00547
G1 X71.871 Y122.433 E0.00818
G1 X71.803 Y122.182 E0.00816
G1 X71.787 Y121.975 E0.00652
G1 X71.790 Y87.952 E1.06675
G1 X71.832 Y87.687 E0.00841
G1 X71.925 Y87.444 E0.00817
G1 X71.993 Y87.333 E0.00408
M204 S1250
G1 X71.716 Y87.063 F9000.000
M204 S800
G1 F1200.000
G1 X71.815 Y86.941 E0.00496
G1 X72.066 Y86.715 E0.01059
G1 X72.354 Y86.549 E0.01042
G1 X72.672 Y86.445 E0.01050
G1 X72.920 Y86.412 E0.00783
G1 X73.493 Y86.410 E0.01797
G1 X106.990 Y86.410 E1.05026
G1 X107.330 Y86.446 E0.01073
G1 X107.646 Y86.549 E0.01041
G1 X107.934 Y86.715 E0.01042
G1 X108.181 Y86.937 E0.01041
G1 X108.378 Y87.208 E0.01050
G1 X108.483 Y87.428 E0.00764
G1 X108.570 Y87.754 E0.01058
G1 X108.590 Y88.011 E0.00807
G1 X108.590 Y121.986 E1.06528
G1 X108.554 Y122.330 E0.01084
G1 X108.451 Y122.646 E0.01041
G1 X108.285 Y122.934 E0.01042
G1 X108.061 Y123.183 E0.01050
G1 X107.868 Y123.331 E0.00764
G1 X107.569 Y123.483 E0.01050
G1 X107.246 Y123.570 E0.01050
G1 X106.989 Y123.590 E0.00807
G1 X73.014 Y123.590 E1.06528
G1 X72.670 Y123.554 E0.01084
G1 X72.354 Y123.451 E0.01041
G1 X72.066 Y123.285 E0.01042
G1 X71.817 Y123.061 E0.01050
G1 X71.669 Y122.868 E0.00764
G1 X71.517 Y122.569 E0.01050
G1 X71.430 Y122.246 E0.01050
G1 X71.410 Y121.989 E0.00807
G1 X71.412 Y87.922 E1.06814
G1 X71.465 Y87.589 E0.01059
G1 X71.585 Y87.276 E0.01050
G1 X71.684 Y87.115 E0.00594
M204 S1250
G1 X71.873 Y87.076 F9000.000
G1 E-2.24000 F4200.00000
G1 F7200.000
G1 X71.815 Y86.941 E-0.12065
G1 X72.066 Y86.715 E-0.18709
G1 X72.354 Y86.549 E-0.18410
G1 X72.672 Y86.445 E-0.18561
G1 X72.920 Y86.412 E-0.13845
G1 X73.093 Y86.412 E-0.09610
G1 E-0.04800 F4200.00000
G1 Z0.400 F9000.000
G1 X75.624 Y87.949
G1 Z0.200
G1 E3.20000 F2400.00000
M204 S800
G1 F1200.000
G1 X74.747 Y87.072 E0.03902
G1 X74.212 Y87.072 E0.01683
G1 X74.832 Y87.692 E0.02759
G1 X74.516 Y87.726 E0.01000
G1 X74.376 Y87.772 E0.00461
G1 X73.677 Y87.072 E0.03112
G1 X73.142 Y87.072 E0.01683
G1 X73.986 Y87.916 E0.03754
G1 X73.646 Y88.112 E0.01232
G1 X72.673 Y87.139 E0.04329
G1 X72.456 Y87.251 E0.00770
G1 X72.348 Y87.349 E0.00456
G1 X73.357 Y88.358 E0.04489
G1 X73.117 Y88.652 E0.01196
G1 X72.139 Y87.675 E0.04348
G1 X72.106 Y87.761 E0.00290
G1 X72.072 Y87.974 E0.00681
G1 X72.072 Y88.143 E0.00529
G1 X72.920 Y88.990 E0.03770
G1 X72.835 Y89.156 E0.00588
G1 X72.770 Y89.375 E0.00718
G1 X72.072 Y88.677 E0.03104
G1 X72.072 Y89.212 E0.01683
G1 X72.693 Y89.833 E0.02760
G1 X72.675 Y90.000 E0.00528
G1 X72.716 Y90.392 E0.01238
G1 X72.072 Y89.747 E0.02865
G1 X72.072 Y90.282 E0.01683
G1 X104.720 Y122.930 E1.45224
G1 X104.185 Y122.930 E0.01683
G1 X72.072 Y90.817 E1.42845
G1 X72.072 Y91.352 E0.01683
G1 X103.650 Y122.930 E1.40465
G1 X103.115 Y122.930 E0.01683
G1 X72.072 Y91.887 E1.38086
G1 X72.072 Y92.422 E0.01683
G1 X102.580 Y122.930 E1.35707
G1 X102.045 Y122.930 E0.01683
G1 X72.072 Y92.957 E1.33327
G1 X72.072 Y93.492 E0.01683
G1 X101.510 Y122.930 E1.30948
G1 X100.975 Y122.930 E0.01683
G1 X72.072 Y94.027 E1.28568
M73 P2 R51
G1 X72.072 Y94.562 E0.01683
G1 X100.440 Y122.930 E1.26189
G1 X99.905 Y122.930 E0.01683
G1 X72.072 Y95.097 E1.23809
G1 X72.072 Y95.631 E0.01683
G1 X99.370 Y122.930 E1.21430
G1 X98.836 Y122.930 E0.01683
G1 X72.072 Y96.166 E1.19051
G1 X72.072 Y96.701 E0.01683
G1 X98.301 Y122.930 E1.16671
G1 X97.766 Y122.930 E0.01683
G1 X72.072 Y97.236 E1.14292
G1 X72.072 Y97.771 E0.01683
